X: 29174
T: New Brig O'Ayr, The
R: reel
M: 4/4
K: Fmajor
|:F2Ac f2cA|cdcA cdcA|B2GB A2FA|GAGF ECDE|
F2Ac f2cA|cdcA cdcA|B2GB A2FA|GFEG F2c2:|
|:fgfe fcAc|defd cAFA|B2GB A2FA|GAGF Ecc2|
fgfe fcAc|defd cAFA|B2GB A2FA|GFEG F2C2:|

